X:1
T:Title
%%score { ( 1 3 ) | 2 }
L:1/8
M:6/8
K:C
V:1 treble nm="Grand Piano"
V:3 treble 
V:2 bass 
V:1
 z3 z2[Q:1/4=90] [EG] | [Ec]2 [Ec] [Ge]2 [Gc] | A2 A c2 A | [EG]2 [Gc] [FB]2 [Ec] | d3 d2 d | %5
 [Ec]2 [Ec] [Ge]2 [Gc] | A2 A c2 A | G2 c c2 B |[M:5/8] d3 [Ec]2 |[M:1/8] [Ge] | %10
[M:3/4] [Af]2 A A2 c | [Ec]2 [EG] [EG]2 [Ec] | B2 c d2 c |[M:7/8] [Ec]2 [DB] [DB]3 [DB] | %14
[M:3/4] c4 z2 |[M:7/8] [F-A]3 F3 z |[M:3/4] c2 B e2 d |[M:5/8] [Ec]-[Ec]- [Ec]3 |] %18
V:2
 z3 z2 [C,C] | [C,C]2 [C,C] [C,C]2 [E,C] | [F,CF]2 [F,CF] [F,A,F]2 [F,CF] | %3
 [C,C]2 [E,C] [D,G,]2 [C,G,] | [G,B,D]3 [G,B,G]2 [G,B,F] | [C,C]2 [C,C] [C,C]2 [E,C] | %6
 [F,CF]2[K:treble] [F,CF] [F,A,F]2 [F,CF] | [G,CE]2 [G,CE] [G,CE]2 [G,DF] | %8
[M:5/8] [G,B,F]3[K:bass] [C,C]2 |[M:1/8] [C,C] |[M:3/4] [F,C]2 [F,CF] [F,CF]2 [F,A,F] | %11
 [C,G,]2 [C,C] [C,C]2 [C,G,] | [G,D]2 [G,E] [G,F]2[K:bass] [G,E] | %13
[M:7/8] [G,,G,]2 [G,,G,] [G,,G,]3 [G,,G,] |[M:3/4] [C,G,]2 C, [C,C]2 [C,C] | %15
[M:7/8] F,2 F, [F,A,]3[K:treble] [F,A,F] |[M:3/4] [G,E]2 [G,DF] [G,CG]2 [G,B,F] | %17
[M:5/8][K:bass] [C,C]-[C,C]- [C,C]3 |] %18
V:3
 x6 | x6 | x6 | x6 | x6 | x6 | x6 | x6 |[M:5/8] x5 |[M:1/8] x |[M:3/4] x6 | x6 | x6 |[M:7/8] x7 | %14
[M:3/4] E2- [G,E-] [EG]2 [EG] |[M:7/8] C2 C c3 c |[M:3/4] x6 |[M:5/8] x5 |] %18

